app/components/icons/anthropic-icon.svg

<?xml version="1.0" encoding="UTF-8"?>
<svg width="256px" height="176px" viewBox="0 0 256 176" version="1.1" xmlns="http://www.w3.org/2000/svg" preserveAspectRatio="xMidYMid">
    <title>Anthropic</title>
    <g fill="#181818">
        <path d="M147.486878,0 C147.486878,0 217.568251,175.780074 217.568251,175.780074 C217.568251,175.780074 256,175.780074 256,175.780074 C256,175.780074 185.918621,0 185.918621,0 C185.918621,0 147.486878,0 147.486878,0 C147.486878,0 147.486878,0 147.486878,0 Z"></path>
        <path d="M66.1828124,106.221191 C66.1828124,106.221191 90.1624677,44.4471185 90.1624677,44.4471185 C90.1624677,44.4471185 114.142128,106.221191 114.142128,106.221191 C114.142128,106.221191 66.1828124,106.221191 66.1828124,106.221191 C66.1828124,106.221191 66.1828124,106.221191 66.1828124,106.221191 Z M70.0705318,0 C70.0705318,0 0,175.780074 0,175.780074 C0,175.780074 39.179211,175.780074 39.179211,175.780074 C39.179211,175.780074 53.5097704,138.86606 53.5097704,138.86606 C53.5097704,138.86606 126.817544,138.86606 126.817544,138.86606 C126.817544,138.86606 141.145724,175.780074 141.145724,175.780074 C141.145724,175.780074 180.324935,175.780074 180.324935,175.780074 C180.324935,175.780074 110.254409,0 110.254409,0 C110.254409,0 70.0705318,0 70.0705318,0 C70.0705318,0 70.0705318,0 70.0705318,0 Z"></path>
    </g>
</svg>

<svg xmlns="http://www.w3.org/2000/svg" viewBox="0 0 256 176">
  <defs>
    <linearGradient id="grad1" x1="0%" y1="0%" x2="100%" y2="100%">
      <stop offset="0%" style="stop-color:#000;stop-opacity:1" />
      <stop offset="100%" style="stop-color:#333;stop-opacity:1" />
    </linearGradient>
  </defs>
  <path d="M147.487 0l70.081 175.78H256L185.919 0zM66.183 106.221l23.98-61.774l23.98 61.774zM70.07 0L0 175.78h39.18l14.33-36.914h73.308l14.328 36.914h39.179L110.255 0z" fill="url(#grad1)"/>
  <path d="M147.487 0l70.081 175.78H256L185.919 0zM66.183 106.221l23.98-61.774l23.98 61.774zM70.07 0L0 175.78h39.18l14.33-36.914h73.308l14.328 36.914h39.179L110.255 0z" fill="none" stroke="#444" stroke-width="0.5"/>
</svg>
